X:1
T:Beauty and The Beast
T:Beauty and The Beast
T:From Walt Disney's Beauty and The Beast
T:Alan Menken
C:Alan Menken
%%score { 1 | 2 }
L:1/8
Q:1/4=90
M:4/4
K:C
V:1 treble nm="Piano" snm="Pno."
V:2 bass 
V:1
!mf! z4 z z z C | z4 D2 F2 | [CE]4 z z z C | D8 | z4 CDEF | G4 GFED | C4 FEDC | z4 [DF]4 | %8
w: as||* can|be.|Bare- ly e- ven|friends, then some- bo- dy|bends un- ex- pec- ed||
 [CE]4 z z z C | z4 D2 F2 | [CE]4 z z z C | D4 EDEG | C4 C z CE | z4 EFDE | C8 | z4 CDEF | G8 | %17
w: * tle||* the|least. Both a lit- tle|scared, nei one pre|Beau- ty and The|Beast.|Ev- er just the|same.|
 z4 z z CA | G8 | z4 CDEF | G4 GFED | C4 CDEC | D4 z4 | C4 z z z C | z4 D2 F2 | [CE]4 z z z C | %26
w: a sur-|prise.|Ev- er as be-|fore, ev- er just as|sure as the sun will|rise.|* as||* as|
 D8 | z4 CDEF | G4 GFED | C4 FEDC | z4 [DF]4 | [CE]4 z z z C | z4 D2 F2 | [CE]4 z z z C | D4 EDEG | %35
w: song.|Bit- er sweet and|strange, find- ing you can|change, learn- ing you were||* the||* the|East. Tale as old as|
 C4 C z CE | z4 EFDE | C8 | z4 EDEG | C4 C z CE | z4 EFDE | C8- | C4 EDEG | C4 C z CE | z4 EFDE | %45
w: time, song old as|Beau- ty and The|Beast.|Tale as old as|time, song old as|Beau- ty and The|Beast.||||
 C8- | C8 |] %47
w: ||
V:2
 z4 C,E,G, z | F,8 | z4 C,E,G, z | z4 F,2 A,2 | [E,G,]4 z4 | [E,B,]8 | [F,A,]8 | G,8 | %8
 z4 C,E,G, z | F,8 | z4 C,E,G, z | z4 G,4 | A,4 z B, z2 | F,4 G,2 F,2 | E,4 F,2 G,2 | C,4 z4 | %16
 [E,B,]4 E,G,A,B, | [F,A,]4 A,B, z2 | [E,B,]4 E,G,A,B, | [F,A,]4 z4 | [E,B,]8 | A,8 | %22
 z2 _B,2 =B,2 G,2 | E,4 E,G,B, z | F,8 | z4 E,G,B, z | z4 F,2 A,2 | [E,G,]4 z4 | [E,B,]8 | %29
 [F,A,]8 | G,8 | z4 E,G,B, z | F,8 | z4 E,G,B, z | z4 G,4 | A,4 z B, z2 | F,4 G,2 F,2 | E,4 F,4 | %38
 E,4 z4 | A,4 z B, z2 | F,4 G,2 F,2 | E,4 F,4 | E,4 z4 | A,4 z B, z2 | F,4 G,2 F,2 | E,4 F,2 G,2 | %46
 C,8 |] %47

